lib/img/icons/ui/minimize.svg

<?xml version="1.0" encoding="utf-8"?>
<!-- Generated by IcoMoon.io -->
<!DOCTYPE svg PUBLIC "-//W3C//DTD SVG 1.1//EN" "http://www.w3.org/Graphics/SVG/1.1/DTD/svg11.dtd">
<svg version="1.1" xmlns="http://www.w3.org/2000/svg" xmlns:xlink="http://www.w3.org/1999/xlink" width="32" height="32" viewBox="0 0 32 32">
<path fill="rgb(0, 0, 0)" d="M32 2h-22v8h-10v20h22v-8h10v-20zM20 28h-18v-14h18v14zM30 20h-8v-10h-10v-4h18v14z"></path>
</svg>

<svg xmlns="http://www.w3.org/2000/svg" width="32" height="32" viewBox="0 0 32 32" class="svg-icon">
    <path d="M32 2H10v8H0v20h22v-8h10V2zM20 28H2V14h18v14zm10-8h-8V10H12V6h18v14z"/>
</svg>
